X:1
T:La Dame du Lac
C:Eric Elsener
A:France
Z:abc transcription Simon Wascher
M:2/4
L:1/8
K:D
A3/2d/2 cB | A3/2G/2 FG | A3/2d/2 cB | B2 A2 |\
A3/2d/2 cB | A3/2G/2 FG | A3/2d/2 cB | A4 :|
|:\
A3/2F/2 BA | G3/2F/2 EF | G3/2F/2 GA | B2 A2 |\
A3/2F/2 BA | G3/2F/2 EF | G3/2A/2 Bc | d4 :|
